X:1
T:Title
L:1/8
M:4/4
I:linebreak $
K:D
V:1 treble nm="Voice"
V:1
"D" DFAF GFEF | D2 DE DFAc | dc"A"ec"G" dcBA | BABc B2"A" (3ABc |"D" d2 de fdAF |"G" GFEF GABG | %6
"D" AGFA"G" GFEF |1"D" D2 DE D2 z2 :|2"D" D2 DE D2 (3ABc |:"D" d2 dc dBFB |"G" GFEF GABc | %11
"D" d2 dc dBFB | dgfe dc"A"ec |"D" d2 dc dBFB |"G" GFEF GABG |"D" AGFA"G" GFEF |1 %16
"D" D2 DE D2 (3ABc :|2"D" D2 DE D2 z2 |] %18
